X:490
T:Reel 490
M:4/4
K:Amaj
L:1/8
C|DF,E,F, D,F,F,A,|B,CB,A, DCA,F,|B,E,E,F, =G,A,B,D|B,D=GF EDCA,|DF, (3F,F,F, E,F,D,F,|B,E,=G,F, B,CDC|B,CB,A, E,F,G,A,|B,CDB, EDCA,|G|F2DF B,FDF|B,E,DE, B,E,G,A,|B,A,DB, FB,G,B,|A,DDB, A,DEF|GEFD CB,G,A,|B,EFG AFGA|BEDC DEFG|AFEC D2|FG|FDDA FDDF|B,DDB, A,F,D,D,|FEDG EDAF|DCB,C DFEC|FEDE FGAF|GFEC DB,A,G,|A,F,DB, ECA,A|B,DDE FDEG|FEDC DB,A,F,|B,DDE FEFG|
